resources/icons/20px/horizontal-inbetween.svg

<svg width="20" height="20" viewBox="0 0 20 20" fill="none" xmlns="http://www.w3.org/2000/svg">
<path d="M11.2926 13.7074C11.6827 14.0975 12.3152 14.0975 12.7053 13.7074L15.6677 10.745C15.6812 10.7329 15.6944 10.7204 15.7074 10.7074C15.9027 10.5121 16.0003 10.256 16 10C16.0003 9.744 15.9027 9.48791 15.7074 9.29259C15.6944 9.27962 15.6812 9.26709 15.6677 9.25498L12.7053 6.29259C12.3152 5.90247 11.6827 5.90247 11.2926 6.29259C10.9025 6.68271 10.9025 7.31521 11.2926 7.70533L13.5873 10L11.2926 12.2947C10.9025 12.6848 10.9025 13.3173 11.2926 13.7074Z" fill="black"/>
<path d="M7.29467 13.7074C7.68479 14.0975 8.31729 14.0975 8.70741 13.7074C9.09753 13.3173 9.09753 12.6848 8.70741 12.2947L6.41274 10L8.70741 7.70533C9.09753 7.31521 9.09753 6.68271 8.70741 6.29259C8.31729 5.90247 7.68479 5.90247 7.29467 6.29259L4.33228 9.25498C4.31879 9.26709 4.30556 9.27962 4.29259 9.29259C4.09727 9.48791 3.99974 9.744 4 10C3.99974 10.256 4.09727 10.5121 4.29259 10.7074C4.30556 10.7204 4.31879 10.7329 4.33228 10.745L7.29467 13.7074Z" fill="black"/>
<path d="M0 20V0H1C1.55228 0 2 0.447715 2 1V19C2 19.5523 1.55228 20 1 20H0Z" fill="black"/>
<path d="M20 20V0H19C18.4477 0 18 0.447715 18 1V19C18 19.5523 18.4477 20 19 20H20Z" fill="black"/>
</svg>

<svg xmlns="http://www.w3.org/2000/svg" viewBox="0 0 20 20">
  <path d="M11.293 13.707a1 1 0 0 0 1.412 0l2.963-2.962a1 1 0 0 0 0-1.49l-2.963-2.962a.999.999 0 1 0-1.412 1.412L13.587 10l-2.294 2.295a1 1 0 0 0 0 1.412M7.295 13.707a.999.999 0 0 0 1.412-1.412L6.413 10l2.294-2.295a.999.999 0 1 0-1.412-1.412L4.332 9.255l-.04.038A1 1 0 0 0 4 10a1 1 0 0 0 .332.745zM0 20V0h1a1 1 0 0 1 1 1v18a1 1 0 0 1-1 1zM20 20V0h-1a1 1 0 0 0-1 1v18a1 1 0 0 0 1 1z"/>
</svg>
